Origami/48x48/apps/runescape.svg

<svg width="48" height="48" version="1.1" viewBox="0 0 48 48" xmlns="http://www.w3.org/2000/svg">
 <path d="m24 4a20 20 0 0 0 -20 20 20 20 0 0 0 20 20 20 20 0 0 0 20 -20 20 20 0 0 0 -20 -20z" style="fill:#38738f"/>
 <path d="m4.0215 24.418a20 20 0 0 0 -0.0215 0.582 20 20 0 0 0 20 20 20 20 0 0 0 20 -20 20 20 0 0 0 -0.021 -0.418 20 20 0 0 1 -19.979 19.418 20 20 0 0 1 -19.978 -19.582z" opacity=".2"/>
 <path d="m24 4a20 20 0 0 0 -20 20 20 20 0 0 0 0.0215 0.418 20 20 0 0 1 19.978 -19.418 20 20 0 0 1 19.979 19.582 20 20 0 0 0 0.021 -0.582 20 20 0 0 0 -20 -20z" fill="#ffffff" style="opacity:.1"/>
 <path d="m18 11c0 0.738658 0.404367 1.376291 1 1.722656v3.289063c-0.929157 0.0079-1.855492 0.03093-2.552734 0.199219-0.762609 0.18407-1.447266 0.789062-1.447266 1.789062l1 0.5s0.521259-0.414674 1-0.5c0.262445-0.04677 0.62156 0.02777 1 0.140625v6.859375l-2 2 2 2v7.5l2 2.5 2-2.5v-18.359375c0.37844-0.112853 0.737555-0.187399 1-0.140625 0.478741 0.08533 1 0.5 1 0.5l1-0.5c0-1-0.684657-1.604993-1.447266-1.789062-0.697242-0.168294-1.623577-0.191294-2.552734-0.199219v-3.289063c0.595633-0.346365 1-0.983998 1-1.722656zm7.134766 5c0.507858 0.49222 0.865234 1.175113 0.865234 2-7.6e-5 0.247517-0.09193 0.486212-0.257812 0.669922 1.489155 1.319883 2.257812 2.041823 2.257812 3.591797 0 2.703106-1.221202 3.940235-4 4.738281l1.708984 3.228516c1.401599 2.647396 3.906275 4.248955 6.56836 5.751953 3.16383 1.408032 6.23278 2.601614 9.722656 3.019531-2.430571-2.262434-5.015638-3.971021-7.853516-5.712891-2.316857-1.515119-3.656502-2.913309-5.146484-5.287109 1.430661-1.482876 2.810705-3.29999 2.912109-5.435547 0.133722-2.816173-1.912109-6.564453-3.824218-6.564453z" style="opacity:.2"/>
 <path d="m18 16h4v19.5l-2 2.5-2-2.5z" style="fill:#ffffff"/>
 <path d="m20 15c-1.227131 0.0142-2.603028-0.01925-3.552734 0.209976-0.762609 0.18407-1.447266 0.790024-1.447266 1.790024l1 0.5s0.521259-0.414674 1-0.5c0.914314-0.162952 3 1 3 1s2.085686-1.162952 3-1c0.478741 0.08533 1 0.5 1 0.5l1-0.5c0-1-0.684657-1.605954-1.447266-1.790024-0.949706-0.229231-2.325603-0.195774-3.552734-0.209976z" style="fill:#ffffff"/>
 <rect transform="rotate(90)" x="11" y="-21" width="6" height="2" style="fill:#ffffff"/>
 <path d="m22 10c0 1.104569-0.895431 2-2 2s-2-0.895431-2-2z" style="fill:#ffffff"/>
 <rect transform="rotate(45)" x="29.7" y="4.24" width="2.828" height="2.828" style="fill:#ffffff"/>
 <path d="M 25.134766,15 C 25.642624,15.49222 26,16.175113 26,17 c -7.6e-5,0.247517 -0.09193,0.486212 -0.257812,0.669922 C 27.231343,18.989805 28,19.711745 28,21.261719 28,23.964825 26.778798,25.201954 24,26 l 1.708984,3.228516 c 1.401599,2.647396 3.906275,4.248955 6.56836,5.751953 C 35.441174,36.388501 38.510124,37.582083 42,38 39.569429,35.737566 36.984362,34.028979 34.146484,32.287109 31.829627,30.77199 30.489982,29.3738 29,27 30.430661,25.517124 31.810705,23.70001 31.912109,21.564453 32.045831,18.74828 30,15 28.087891,15 Z" style="fill:#ffffff"/>
</svg>

<svg xmlns="http://www.w3.org/2000/svg" width="48" height="48" version="1.1" viewBox="0 0 48 48">
 <path style="fill:#38738f" d="m24 4a20 20 0 0 0 -20 20 20 20 0 0 0 20 20 20 20 0 0 0 20 -20 20 20 0 0 0 -20 -20z"/>
 <path opacity=".2" d="m4.0215 24.418a20 20 0 0 0 -0.0215 0.582 20 20 0 0 0 20 20 20 20 0 0 0 20 -20 20 20 0 0 0 -0.021 -0.418 20 20 0 0 1 -19.979 19.418 20 20 0 0 1 -19.978 -19.582z"/>
 <path fill="#ffffff" style="opacity:0.1" d="m24 4a20 20 0 0 0 -20 20 20 20 0 0 0 0.0215 0.418 20 20 0 0 1 19.978 -19.418 20 20 0 0 1 19.979 19.582 20 20 0 0 0 0.021 -0.582 20 20 0 0 0 -20 -20z"/>
 <path style="opacity:0.2" d="m 18,11 c 0,0.738658 0.404367,1.376291 1,1.722656 v 3.289063 c -0.929157,0.0079 -1.855492,0.03093 -2.552734,0.199219 C 15.684657,16.395008 15,17 15,18 l 1,0.5 c 0,0 0.521259,-0.414674 1,-0.5 0.262445,-0.04677 0.62156,0.02777 1,0.140625 V 25 l -2,2 2,2 v 7.5 l 2,2.5 2,-2.5 V 18.140625 C 22.37844,18.027772 22.737555,17.953226 23,18 c 0.478741,0.08533 1,0.5 1,0.5 L 25,18 C 25,17 24.315343,16.395007 23.552734,16.210938 22.855492,16.042644 21.929157,16.019644 21,16.011719 V 12.722656 C 21.595633,12.376291 22,11.738658 22,11 Z m 7.134766,5 C 25.642624,16.49222 26,17.175113 26,18 c -7.6e-5,0.247517 -0.09193,0.486212 -0.257812,0.669922 C 27.231343,19.989805 28,20.711745 28,22.261719 28,24.964825 26.778798,26.201954 24,27 l 1.708984,3.228516 c 1.401599,2.647396 3.906275,4.248955 6.56836,5.751953 C 35.441174,37.388501 38.510124,38.582083 42,39 39.569429,36.737566 36.984362,35.028979 34.146484,33.287109 31.829627,31.77199 30.489982,30.3738 29,28 30.430661,26.517124 31.810705,24.70001 31.912109,22.564453 32.045831,19.74828 30,16 28.087891,16 Z"/>
 <path style="fill:#ffffff" d="m 18,16 h 4 V 35.5 L 20,38 18,35.5 Z"/>
 <path style="fill:#ffffff" d="M 20,15 C 18.772869,15.0142 17.396972,14.98075 16.447266,15.209976 15.684657,15.394046 15,16 15,17 l 1,0.5 c 0,0 0.521259,-0.414674 1,-0.5 0.914314,-0.162952 3,1 3,1 0,0 2.085686,-1.162952 3,-1 0.478741,0.08533 1,0.5 1,0.5 L 25,17 C 25,16 24.315343,15.394046 23.552734,15.209976 22.603028,14.980745 21.227131,15.014202 20,15 Z"/>
 <rect style="fill:#ffffff" width="6" height="2" x="11" y="-21" transform="rotate(90)"/>
 <path style="fill:#ffffff" d="m 22,10 c 0,1.104569 -0.895431,2 -2,2 -1.104569,0 -2,-0.895431 -2,-2 z"/>
 <rect style="fill:#ffffff" width="2.828" height="2.828" x="29.7" y="4.24" transform="rotate(45)"/>
 <path style="fill:#ffffff" d="M 25.134766,15 C 25.642624,15.49222 26,16.175113 26,17 c -7.6e-5,0.247517 -0.09193,0.486212 -0.257812,0.669922 C 27.231343,18.989805 28,19.711745 28,21.261719 28,23.964825 26.778798,25.201954 24,26 l 1.708984,3.228516 c 1.401599,2.647396 3.906275,4.248955 6.56836,5.751953 C 35.441174,36.388501 38.510124,37.582083 42,38 39.569429,35.737566 36.984362,34.028979 34.146484,32.287109 31.829627,30.77199 30.489982,29.3738 29,27 30.430661,25.517124 31.810705,23.70001 31.912109,21.564453 32.045831,18.74828 30,15 28.087891,15 Z"/>
</svg>
